Hexo/source/_posts/pyplot-原点相交的坐标轴与箭头/arrow_axis-1.svg

<?xml version="1.0" encoding="utf-8" standalone="no"?>
<!DOCTYPE svg PUBLIC "-//W3C//DTD SVG 1.1//EN"
  "http://www.w3.org/Graphics/SVG/1.1/DTD/svg11.dtd">
<!-- Created with matplotlib (http://matplotlib.org/) -->
<svg height="158.4pt" version="1.1" viewBox="0 0 288 158.4" width="288pt" xmlns="http://www.w3.org/2000/svg" xmlns:xlink="http://www.w3.org/1999/xlink">
 <defs>
  <style type="text/css">
*{stroke-linecap:butt;stroke-linejoin:round;}
  </style>
 </defs>
 <g id="figure_1">
  <g id="patch_1">
   <path d="M 0 158.4 
L 288 158.4 
L 288 0 
L 0 0 
z
" style="fill:#ffffff;"/>
  </g>
  <g id="axes_1">
   <g id="patch_2">
    <path d="M 36 138.6 
L 259.2 138.6 
L 259.2 19.008 
L 36 19.008 
z
" style="fill:#ffffff;"/>
   </g>
   <g id="patch_3">
    <path d="M 259.2 133.164 
L 248.04 136.1538 
L 251.388 133.170795 
L 36 133.170795 
L 36 133.157205 
L 251.388 133.157205 
L 248.04 130.1742 
z
" style="stroke:#000000;stroke-linejoin:miter;"/>
   </g>
   <g id="patch_4">
    <path d="M 147.6 19.008 
L 150.668564 29.881546 
L 147.606341 26.619482 
L 147.606341 138.6 
L 147.593659 138.6 
L 147.593659 26.619482 
L 144.531436 29.881546 
z
" style="stroke:#000000;stroke-linejoin:miter;"/>
   </g>
   <g id="matplotlib.axis_1">
    <g id="xtick_1">
     <g id="text_1">
      <!-- −5 -->
      <defs>
       <path d="M 10.59375 35.5 
L 73.1875 35.5 
L 73.1875 27.203125 
L 10.59375 27.203125 
z
" id="DejaVuSans-2212"/>
       <path d="M 10.796875 72.90625 
L 49.515625 72.90625 
L 49.515625 64.59375 
L 19.828125 64.59375 
L 19.828125 46.734375 
Q 21.96875 47.46875 24.109375 47.828125 
Q 26.265625 48.1875 28.421875 48.1875 
Q 40.625 48.1875 47.75 41.5 
Q 54.890625 34.8125 54.890625 23.390625 
Q 54.890625 11.625 47.5625 5.09375 
Q 40.234375 -1.421875 26.90625 -1.421875 
Q 22.3125 -1.421875 17.546875 -0.640625 
Q 12.796875 0.140625 7.71875 1.703125 
L 7.71875 11.625 
Q 12.109375 9.234375 16.796875 8.0625 
Q 21.484375 6.890625 26.703125 6.890625 
Q 35.15625 6.890625 40.078125 11.328125 
Q 45.015625 15.765625 45.015625 23.390625 
Q 45.015625 31 40.078125 35.4375 
Q 35.15625 39.890625 26.703125 39.890625 
Q 22.75 39.890625 18.8125 39.015625 
Q 14.890625 38.140625 10.796875 36.28125 
z
" id="DejaVuSans-35"/>
      </defs>
      <g transform="translate(76.819815 153.198438)scale(0.1 -0.1)">
       <use xlink:href="#DejaVuSans-2212"/>
       <use x="83.789062" xlink:href="#DejaVuSans-35"/>
      </g>
     </g>
    </g>
    <g id="xtick_2">
     <g id="text_2">
      <!-- 0 -->
      <defs>
       <path d="M 31.78125 66.40625 
Q 24.171875 66.40625 20.328125 58.90625 
Q 16.5 51.421875 16.5 36.375 
Q 16.5 21.390625 20.328125 13.890625 
Q 24.171875 6.390625 31.78125 6.390625 
Q 39.453125 6.390625 43.28125 13.890625 
Q 47.125 21.390625 47.125 36.375 
Q 47.125 51.421875 43.28125 58.90625 
Q 39.453125 66.40625 31.78125 66.40625 
z
M 31.78125 74.21875 
Q 44.046875 74.21875 50.515625 64.515625 
Q 56.984375 54.828125 56.984375 36.375 
Q 56.984375 17.96875 50.515625 8.265625 
Q 44.046875 -1.421875 31.78125 -1.421875 
Q 19.53125 -1.421875 13.0625 8.265625 
Q 6.59375 17.96875 6.59375 36.375 
Q 6.59375 54.828125 13.0625 64.515625 
Q 19.53125 74.21875 31.78125 74.21875 
z
" id="DejaVuSans-30"/>
      </defs>
      <g transform="translate(144.41875 153.198438)scale(0.1 -0.1)">
       <use xlink:href="#DejaVuSans-30"/>
      </g>
     </g>
    </g>
    <g id="xtick_3">
     <g id="text_3">
      <!-- 5 -->
      <g transform="translate(207.827841 153.198438)scale(0.1 -0.1)">
       <use xlink:href="#DejaVuSans-35"/>
      </g>
     </g>
    </g>
   </g>
   <g id="matplotlib.axis_2">
    <g id="ytick_1">
     <g id="text_4">
      <!-- 0 -->
      <g transform="translate(22.6375 136.963219)scale(0.1 -0.1)">
       <use xlink:href="#DejaVuSans-30"/>
      </g>
     </g>
    </g>
    <g id="ytick_2">
     <g id="text_5">
      <!-- 5 -->
      <g transform="translate(22.6375 69.013219)scale(0.1 -0.1)">
       <use xlink:href="#DejaVuSans-35"/>
      </g>
     </g>
    </g>
   </g>
   <g id="line2d_1">
    <path clip-path="url(#p6ea3fb408a)" d="M 46.145455 133.164 
L 58.827273 133.164 
L 71.509091 133.164 
L 84.190909 133.164 
L 96.872727 133.164 
L 109.554545 133.164 
L 122.236364 133.164 
L 134.918182 133.164 
L 147.6 133.164 
L 160.281818 119.574 
L 172.963636 105.984 
L 185.645455 92.394 
L 198.327273 78.804 
L 211.009091 65.214 
L 223.690909 51.624 
L 236.372727 38.034 
L 249.054545 24.444 
" style="fill:none;stroke:#ff0000;stroke-linecap:square;stroke-width:2;"/>
   </g>
  </g>
 </g>
 <defs>
  <clipPath id="p6ea3fb408a">
   <rect height="119.592" width="223.2" x="36" y="19.008"/>
  </clipPath>
 </defs>
</svg>

<svg height="211.2" viewBox="0 0 288 158.4" width="384" xmlns="http://www.w3.org/2000/svg" xmlns:xlink="http://www.w3.org/1999/xlink">
  <defs>
    <style>
      *{stroke-linecap:butt;stroke-linejoin:round}
    </style>
  </defs>
  <g id="figure_1">
    <path d="M0 158.4h288V0H0z" fill="#fff" id="patch_1"/>
    <g id="axes_1">
      <path d="M36 138.6h223.2V19.008H36z" fill="#fff" id="patch_2"/>
      <path d="M259.2 133.164l-11.16 2.99 3.348-2.983H36v-.014h215.388l-3.348-2.983z" stroke="#000" id="patch_3"/>
      <path d="M147.6 19.008l3.069 10.874-3.063-3.263V138.6h-.012V26.62l-3.063 3.262z" stroke="#000" id="patch_4"/>
      <g id="matplotlib.axis_1">
        <g id="xtick_1">
          <g id="text_1">
            <defs>
              <path d="M10.594 35.5h62.593v-8.297H10.594z" id="DejaVuSans-2212"/>
              <path d="M10.797 72.906h38.719v-8.312H19.828v-17.86q2.14.735 4.281 1.094 2.157.36 4.313.36 12.203 0 19.328-6.688 7.14-6.688 7.14-18.11 0-11.765-7.328-18.296-7.328-6.516-20.656-6.516-4.593 0-9.36.781-4.75.782-9.827 2.344v9.922q4.39-2.39 9.078-3.563 4.687-1.171 9.906-1.171 8.453 0 13.375 4.437 4.938 4.438 4.938 12.063 0 7.609-4.938 12.047-4.922 4.453-13.375 4.453-3.953 0-7.89-.875-3.922-.875-8.016-2.735z" id="DejaVuSans-35"/>
            </defs>
            <g transform="matrix(.1 0 0 -.1 76.82 153.198)">
              <use xlink:href="#DejaVuSans-2212"/>
              <use x="83.789" xlink:href="#DejaVuSans-35"/>
            </g>
          </g>
        </g>
        <g id="xtick_2">
          <g id="text_2">
            <defs>
              <path d="M31.781 66.406q-7.61 0-11.453-7.5Q16.5 51.422 16.5 36.375q0-14.984 3.828-22.484 3.844-7.5 11.453-7.5 7.672 0 11.5 7.5 3.844 7.5 3.844 22.484 0 15.047-3.844 22.531-3.828 7.5-11.5 7.5zm0 7.813q12.266 0 18.735-9.703 6.468-9.688 6.468-28.141 0-18.406-6.468-28.11-6.47-9.687-18.735-9.687-12.25 0-18.718 9.688-6.47 9.703-6.47 28.109 0 18.453 6.47 28.14Q19.53 74.22 31.78 74.22z" id="DejaVuSans-30"/>
            </defs>
            <use xlink:href="#DejaVuSans-30" transform="matrix(.1 0 0 -.1 144.419 153.198)"/>
          </g>
        </g>
        <g id="xtick_3">
          <use xlink:href="#DejaVuSans-35" transform="matrix(.1 0 0 -.1 207.828 153.198)" id="text_3"/>
        </g>
      </g>
      <g id="matplotlib.axis_2">
        <g id="ytick_1">
          <use xlink:href="#DejaVuSans-30" transform="matrix(.1 0 0 -.1 22.637 136.963)" id="text_4"/>
        </g>
        <g id="ytick_2">
          <use xlink:href="#DejaVuSans-35" transform="matrix(.1 0 0 -.1 22.637 69.013)" id="text_5"/>
        </g>
      </g>
      <path clip-path="url(#p6ea3fb408a)" d="M46.145 133.164H147.6l12.682-13.59 12.682-13.59 12.681-13.59 12.682-13.59 12.682-13.59 12.682-13.59 12.682-13.59 12.682-13.59" fill="none" stroke="red" stroke-linecap="square" stroke-width="2" id="line2d_1"/>
    </g>
  </g>
  <defs>
    <clipPath id="p6ea3fb408a">
      <path d="M36 19.008h223.2V138.6H36z"/>
    </clipPath>
  </defs>
</svg>
